X: 4222
T: The Lass of Ballantrae.   a Reel.
%R: reel
B: Niel Gow & Sons "Complete Repository" v.4 p.22 #2
Z: 2021 John Chambers <jc:trillian.mit.edu>
M: C|
L: 1/8
K: F
% - - - - - - - - - -
% Voice 1 formatted for compactness and proofreading.
V: 1 staves=2
d |\
cFAc dfef | cFAF GDDd | cFAc dfeg | afce f3 :| c | fcfa gceg | (f/g/a) Tg>f ecce |
fcfa gcgb | afce Tf3c | fcfa gceg | (f/g/a) Tg>f eccf | (d/c/B) fd cFAc | dfeg [f3c3A3] |]
% - - - - - - - - - -
% Voice 2 preserves the book's staff layout.
V: 2 clef=bass middle=d
z |\
F2f2 B2b2 | a2f2 g2b2 | a2f2 b2c'2 | f'2c'2 f2f' :| z | f2f'2 c2c'2 | f2=b2 c'2c2 |
f2f'2 c2c'2 | f2c2 F2f2 | f2f'2 c2c'2 | f2=b2 c'2c2 | B2b2 a2f2 | B2 c2 F2f |]


